X:1
T:Margate, 76.76 D
T:Edward Johnson Bellerby, ca. 1894
T:Margate, 76.76 D
T:Public Domain
C:Edward Johnson Bellerby, ca. 1894
Z:Public Domain
%%score ( 1 2 ) ( 3 4 )
L:1/8
M:4/4
K:C
V:1 treble 
V:2 treble 
V:3 bass 
V:4 bass 
V:1
 [CE]2 | [B,D]2 C2 [CF]2 [CE]2 | [B,A]4 [CG]2 [CE]2 | [CG]2 [CF]2 C2 [CD]2 | [CE]6 [DE]2 | %5
 [CE]2 [EA]2 [EG]2 [^D^F]2 | [EB]4 [CE]2 [E^F]2 | [EG]2 (CB,) [A,E]2 [A,^D]2 | [G,E]6 [B,E]2 | %9
 [DF]2 [DF]2 [DG]2 [B,D]2 | [B,F]4 [CE]2 [D^F]2 | [DG]2 [Cc]2 [DB]2 [CA]2 | [B,B]6 [DG]2 | %13
 [DA]2 [DB]2 [Ge]2 [Gd]2 | ([Gc]2 [DB]2) [CA]2 [^CE]2 | [EG]3 [DF] [B,E]2 [B,D]2 | C6 |] %17
V:2
 x2 | x2 C2 x4 | x8 | x4 C2 x2 | x8 | x8 | x8 | x2 E2 x4 | x8 | x8 | x8 | x8 | x8 | x8 | x8 | x8 | %16
 C6 |] %17
V:3
 [C,G,]2 | [C,F,]2 [C,E,]2 [C,A,]2 [C,G,]2 | [C,F,]4 [C,E,]2 [C,G,]2 | %3
 [F,,_B,]2 [F,,A,]2 [F,A,]2 [F,_A,]2 | [C,G,]6 [B,,^G,]2 | [A,,A,]2 [C,A,]2 [B,,B,]2 [A,,B,]2 | %6
 [G,,B,]4 [C,G,]2 [A,,C]2 | [B,,B,]2 (A,G,) [B,,^F,]2 [B,,F,]2 | E,6 [E,G,]2 | %9
 [D,A,]2 [C,A,]2 [B,,G,]2 [G,,G,]2 | [C,G,]4 [C,G,]2 [C,A,]2 | [B,,G,]2 [E,G,]2 [D,G,]2 [D,^F,]2 | %12
 [G,,G,]6 [G,B,]2 | [^F,A,]2 G,2 [=F,B,]2 [G,B,]2 | (C2 ^G,2) [F,A,]2 A,2 | %15
 D,2 z A, [G,,G,]2 [G,,F,]2 | [C,E,]6 |] %17
V:4
 x2 | x8 | x8 | x8 | x8 | x8 | x8 | x2 B,,2 x4 | E,6 x2 | x8 | x8 | x8 | x8 | x2 G,2 x4 | %14
 E,4 A,2 x2 | _B,3 D,2 x3 | x6 |] %17

